X:1
T: The March Hare
C:Bruce Shawyer
R:Jig
Q:180
K:Am
M:6/8
L:1/16
|:E2|c2B2c2 A2B2c2|d2c2d2 B2c2d2|c2B2c2 A2B2c2|d2c2B2 E4E2|
c2B2c2 A2B2c2|d2c2d2 B2c2d2|1c2d2e2 B2A2^G2|A6 A4:|2c2d2e2 e2^f2^g2|a6 A4e2|
|:a2g2e2 e2d2B2|c2d2e2 d2B2G2|c2d2e2 d2c2B2|c2d2e2 g6|
a2g2e2 e2d2B2|c2d2e2 d2B2G2|1c2d2e2 e2^f2^g2|a6 a4e2:|2c2d2e2 B2A2^G2|A6 A4||
